app/images/icons/bluesky.svg

<svg xmlns:xlink="http://www.w3.org/1999/xlink" xmlns="http://www.w3.org/2000/svg" fill="none" viewBox="0 0 64 57" width="64" style="width: 28px; height: 24.9375px;" height="57" ><path fill="#0085FF" d="M13.873 3.805C21.21 9.332 29.103 20.537 32 26.55v15.882c0-.338-.13.044-.41.867-1.512 4.456-7.418 21.847-20.923 7.944-7.111-7.32-3.819-14.64 9.125-16.85-7.405 1.264-15.73-.825-18.014-9.015C1.12 23.022 0 8.51 0 6.55 0-3.268 8.579-.182 13.873 3.805ZM50.127 3.805C42.79 9.332 34.897 20.537 32 26.55v15.882c0-.338.13.044.41.867 1.512 4.456 7.418 21.847 20.923 7.944 7.111-7.32 3.819-14.64-9.125-16.85 7.405 1.264 15.73-.825 18.014-9.015C62.88 23.022 64 8.51 64 6.55c0-9.818-8.578-6.732-13.873-2.745Z"></path></svg>

<?xml version="1.0" encoding="UTF-8" standalone="no"?>
<!DOCTYPE svg PUBLIC "-//W3C//DTD SVG 1.1//EN" "http://www.w3.org/Graphics/SVG/1.1/DTD/svg11.dtd">
<svg width="100%" height="100%" viewBox="0 0 20 20" version="1.1" xmlns="http://www.w3.org/2000/svg" xmlns:xlink="http://www.w3.org/1999/xlink" xml:space="preserve" xmlns:serif="http://www.serif.com/" style="fill-rule:evenodd;clip-rule:evenodd;stroke-linejoin:round;stroke-miterlimit:2;">
  <title>Bluesky</title>
    <g transform="matrix(0.3125,0,0,0.3125,0,1.16674)">
        <path d="M13.873,3.805C21.21,9.332 29.103,20.537 32,26.55L32,42.432C32,42.094 31.87,42.476 31.59,43.299C30.078,47.755 24.172,65.146 10.667,51.243C3.556,43.923 6.848,36.603 19.792,34.393C12.387,35.657 4.062,33.568 1.778,25.378C1.12,23.022 0,8.51 0,6.55C0,-3.268 8.579,-0.182 13.873,3.805ZM50.127,3.805C42.79,9.332 34.897,20.537 32,26.55L32,42.432C32,42.094 32.13,42.476 32.41,43.299C33.922,47.755 39.828,65.146 53.333,51.243C60.444,43.923 57.152,36.603 44.208,34.393C51.613,35.657 59.938,33.568 62.222,25.378C62.88,23.022 64,8.51 64,6.55C64,-3.268 55.422,-0.182 50.127,3.805Z" style="fill:currentColor;fill-rule:nonzero;"/>
    </g>
</svg>
